!!!COM: Olivier (Eugène Prosper Charles) Messiaen
!!!OTL: [T782_Mes-w25p5m24-31]
**kern	**dynam	**kern	**dynam	**kern	**dynam
*grp:A	*grp:A	*grp:B	*grp:B	*grp:A	*grp:A
*part2	*part2	*part1	*	*part1	*part1
*staff3	*	*staff2	*	*staff1	*
*I"PED.	*	*I"[Organ] MAN.	*	*	*
*I'Ped.	*	*I'Org.	*	*	*
*clefF4	*	*clefF4	*	*clefF4	*
*k[]	*	*k[]	*	*k[]	*
*C:	*	*C:	*	*C:	*
*M2/4	*	*M2/4	*	*M2/4	*
=24	=24	=24	=24	=24	=24
!	!	!	!	!LO:TX:t=[[eighth]=52]	!
!	!	!	!	!LO:TX:a:t=┌	!
!LO:TX:t=P:problem: Organ Peddle Markings have not been added to VHV (U and V)	!	!	!	!	!
!LO:TX:a:t=┌	!	!LO:TX:a:t=┌ ↓	!	!LO:TX:a:i:t=non leg.	!
!LO:TX:a:i:t=  legato	!	!LO:TX:a:t=R	!	!LO:TX:a:B:t=Presque vif (interversions sur 5 durées chromatiques)	!
!LO:TX:b:t=꙳	!	!LO:TX:b:i:t=  legato	!	!	!
!LO:TX:b:t=꙳ = Chaque encadrement indique un terme contenent les 5 durées interverties	!	!	!	!	!
!LO:TX:a:i:t=sombre	!	!LO:TX:a:t=(R&colon; +octavin 2)	!	!LO:TX:a:t=G	!LO:DY:a
8.EEnu<L	mf	[4CC [4DD	mf	16FF#XKL 16BB-X 16D	mf
!LO:TX:b:i:t= sombre	!	!	!	!	!
.	.	.	.	8EEn 8AA-X 8E-X	.
[16EE-v<XJ	.	.	.	[16GGJk [16BBn [16F#X	.
4EE-]	.	16CCKL] 16DD]	.	8GGL] 8BB] 8F#]	.
.	.	[8.DD-XJ [8.FFn	.	.	.
.	.	.	.	[8AA-XJ [8C [8En	.
=25	=25	=25	=25	=25	=25
16FF#XvKL	.	16DD-XLL] 16FF]	.	8AA-XL] 8C] 8E]	.
8CCnv<	.	16DDnJ 16FF#X	.	.	.
.	.	8FFnJ 8GG	.	[8BB-XJ [8D [8E-X	.
(8qAAnv/	.	.	.	.	.
[16CCv<Jk)	.	.	.	.	.
8.CCL]	.	8.FF#XL 8.AA-X	.	/8.BB-L] 8.D] 8.E-]	.
!LO:TX:a:t=┌	!	!LO:TX:a:t=┌	!	!LO:TX:a:t=┌	!
[16EEnu<Jk	.	[16GGJk [16BBn	.	16BBnJk 16E-X 16B-X	.
=26	=26	=26	=26	=26	=26
8EEL]	.	4GG] 4BB]	.	8CL 8En 8G	.
[8EE-Xv<J	.	.	.	[8DJ [8F#X [8Bn	.
8.EE-L]	.	4AA-X 4C	.	16DKL] 16F#] 16B]	.
.	.	.	.	[8.EnJ [8.B-X [8.d	.
16FF#XvJk	.	.	.	.	.
=27	=27	=27	=27	=27	=27
4CCn	.	16BBnKL 16D-X	.	8E] 8B-X] 8d]	.
.	.	8.CJ 8.Dn	.	.	.
.	.	.	.	4A-X 4Bn 4e-X	.
(8qAAn/	.	.	.	.	.
8CCv<L)	.	/8D-XL 8Fn	.	.	.
!LO:TX:a:t=┌	!	!LO:TX:a:t=┌	!	!LO:TX:a:t=┌	!
[8EEnu<J	.	[8DnJ [8F#X	.	16GLL 16B-X 16d	.
.	.	.	.	[16F#XJJ [16A-X [16c	.
=28	=28	=28	=28	=28	=28
16EEKL]	.	/8.DL] 8.F#X]	.	16F#XKL] 16A-X] 16c]	.
[8.EE-Xv<J	.	.	.	[8.EnJ [8.G [8.Bn	.
.	.	[16D-XJk [16Fn	.	.	.
8EE-L]	.	/8.D-L] 8.F]	.	16EKL] 16G] 16B]	.
.	.	.	.	[8.BBnJ [8.E-X [8.B-X	.
(8qFF#vX/	.	.	.	.	.
8CCJ)	.	.	.	.	.
.	.	[16CJk [16Dn	.	.	.
=29	=29	=29	=29	=29	=29
16AAnKL	.	16CLL] 16D]	.	8BBnXL] 8E-X] 8B-X]	.
[8.CCv<J	.	16BBnJ 16D-X	.	.	.
.	.	[8AA-XJ [8C	.	[8CJ [8Dn [8G	.
16CCKL]	.	16AA-KL] 16C]	.	16CLL] 16D] 16G]	.
!LO:TX:a:t=┌	!	!LO:TX:a:t=┌	!	!LO:TX:a:t=┌	!
8.EEnu<J	.	[8.GGJ [8.BBn	.	16AA-XJ 16BB-X 16E-X	.
.	.	.	.	8CJ 8D 8G	.
=30	=30	=30	=30	=30	=30
[4AAn	.	8GG] 8BB]	.	4EE-X 4GG 4D	.
.	.	4FF#X 4AA-X	.	.	.
16AAKL]	.	.	.	8.EEnL 8.AA-X 8.C	.
8EE-X	.	.	.	.	.
.	.	8FFn 8GG	.	.	.
[16AAnJk	.	.	.	[16FF#XJk [16BBn [16BB-X	.
=31	=31	=31	=31	=31	=31
*M5/16	*	*M5/16	*	*M5/16	*
8.AAL]	.	8.DDnL 8.FF#X	.	4FF#X] 4BBn] 4BB-X]	.
!LO:TX:a:t=┐	!	!LO:TX:a:t=┐	!	!LO:TX:a:t=┐	!
16EE-XJk	.	16DD-XJk 16FFn	.	.	.
16r	.	16r	.	16r	.
=	=	=	=	=	=
*-	*-	*-	*-	*-	*-
!!!system-decoration: [({(s1,s2)})]s3
!!!RDF**kern: > = above
!!!RDF**kern: < = below
!!!EED: Daniel Wright
!!!EEV: 2022/1/21
